assets/images/svg/okay.svg

<svg width="100" height="100" viewBox="0 0 100 100" fill="none" xmlns="http://www.w3.org/2000/svg">
<path d="M56.4172 92.3077C80.0178 88.5288 96.0865 66.3334 92.3076 42.7328C88.5288 19.1321 66.3333 3.06345 42.7327 6.84232C19.1321 10.6212 3.06338 32.8167 6.84225 56.4173C10.6211 80.0179 32.8166 96.0866 56.4172 92.3077Z" fill="#FFCE00"/>
<path d="M74.6625 44.0138C75.1115 44.2908 75.7035 43.9758 75.7035 43.4488C75.7035 43.4438 75.7035 43.4408 75.7035 43.4358C75.7035 40.2788 73.1445 37.7178 69.9875 37.7178C66.8305 37.7178 64.2715 40.2788 64.2715 43.4358C64.2715 43.4408 64.2715 43.4438 64.2715 43.4488C64.2715 43.9758 64.8635 44.2908 65.3125 44.0138C66.6705 43.1738 68.2725 42.6878 69.9875 42.6878C71.7025 42.6878 73.3035 43.1738 74.6625 44.0138Z" fill="#562912"/>
<path d="M33.855 44.0138C34.302 44.2908 34.892 43.9758 34.895 43.4488C34.895 43.4438 34.895 43.4408 34.895 43.4358C34.895 40.2788 32.335 37.7178 29.175 37.7178C26.017 37.7178 23.459 40.2788 23.459 43.4358C23.459 43.4408 23.459 43.4438 23.459 43.4488C23.461 43.9758 24.051 44.2908 24.499 44.0138C25.859 43.1738 27.46 42.6878 29.175 42.6878C30.892 42.6878 32.494 43.1738 33.855 44.0138Z" fill="#562912"/>
<path d="M49.816 69.3075C42.573 69.3075 35.4059 66.5075 30.1529 61.6245C29.2969 60.8285 29.248 59.4895 30.044 58.6335C30.838 57.7785 32.179 57.7275 33.035 58.5245C37.514 62.6865 43.63 65.0745 49.816 65.0745C55.781 65.0745 61.74 62.8295 66.165 58.9165C67.043 58.1435 68.3779 58.2255 69.1529 59.1005C69.9279 59.9765 69.845 61.3135 68.969 62.0885C63.705 66.7435 56.904 69.3075 49.816 69.3075Z" fill="#562912"/>
</svg>

<svg xmlns="http://www.w3.org/2000/svg" width="100" height="100" fill="none" viewBox="0 0 100 100"><path fill="#ffce00" d="M56.417 92.308c23.6-3.78 39.67-25.975 35.89-49.575-3.778-23.6-25.974-39.67-49.574-35.89-23.6 3.778-39.67 25.974-35.89 49.574 3.778 23.6 25.974 39.67 49.574 35.89"/><path fill="#562912" d="M74.663 44.014c.449.277 1.04-.038 1.04-.565v-.013a5.72 5.72 0 0 0-5.716-5.718 5.72 5.72 0 0 0-5.715 5.718v.013c0 .527.591.842 1.04.565a8.86 8.86 0 0 1 4.676-1.326c1.715 0 3.316.486 4.674 1.326M33.855 44.014c.447.277 1.037-.038 1.04-.565v-.013a5.719 5.719 0 0 0-11.436 0v.013c.002.527.592.842 1.04.565a8.87 8.87 0 0 1 4.676-1.326 8.9 8.9 0 0 1 4.68 1.326M49.816 69.308c-7.243 0-14.41-2.8-19.663-7.684a2.116 2.116 0 1 1 2.882-3.1c4.479 4.163 10.595 6.55 16.781 6.55 5.965 0 11.924-2.244 16.349-6.157a2.116 2.116 0 1 1 2.804 3.172c-5.264 4.654-12.065 7.219-19.153 7.219"/></svg>
